Hatter-kde/actions/22/kstars_grid.svg

<svg xmlns="http://www.w3.org/2000/svg" viewBox="0 0 22 22">
  <defs id="defs3051">
    <style type="text/css" id="current-color-scheme">
      .ColorScheme-Text {
        color:#363636;
      }
      </style>
  </defs>
 <path 
     style="fill:currentColor;fill-opacity:1;stroke:none" 
     d="M 6.5253906 3 L 9.4277344 4.2792969 C 8.9455822 5.2084417 8.3338024 6.0556227 7.6269531 6.8144531 L 3.8183594 3.0195312 L 3.0117188 3.0195312 L 3.0117188 3.96875 L 6.734375 7.6738281 C 6.0135437 8.2976972 5.2205843 8.8366627 4.359375 9.2675781 L 3.5683594 7.4824219 L 3.5683594 7.4785156 L 3.0292969 6.2226562 L 3.015625 9.2460938 L 3.2402344 9.7519531 C 3.158772 9.782362 3.0823285 9.822956 3 9.8515625 L 3 11.160156 C 3.2534343 11.081317 3.4938266 10.974834 3.7402344 10.880859 L 5.6757812 15.246094 C 4.8141864 15.585098 3.9223154 15.864848 3 16.064453 L 3 17.333984 C 4.0991768 17.112189 5.1575819 16.7826 6.1777344 16.376953 L 7.3125 18.939453 L 8.6445312 18.939453 L 7.2949219 15.892578 C 8.9790715 15.091314 10.522012 14.04517 11.882812 12.800781 L 15.306641 16.208984 C 14.188296 17.24994 12.974599 18.189861 11.669922 19 L 13.890625 19 C 14.696853 18.409962 15.455465 17.761267 16.183594 17.080078 L 18.050781 18.939453 L 18.939453 18.949219 L 18.945312 18.09375 L 17.060547 16.216797 C 17.746287 15.50883 18.401549 14.771156 19 13.986328 L 19 11.837891 C 18.176943 13.098335 17.230344 14.268468 16.1875 15.345703 L 12.767578 11.9375 C 14.100571 10.547021 15.221167 8.9538482 16.076172 7.2050781 L 18.935547 8.4648438 L 18.939453 7.1191406 L 16.572266 6.09375 C 16.977528 5.1057161 17.310766 4.081641 17.542969 3.0175781 L 16.273438 3.0175781 C 16.064803 3.9091886 15.783102 4.7704921 15.443359 5.6035156 L 11.039062 3.6972656 C 11.129806 3.4703041 11.234662 3.2507239 11.3125 3.0175781 L 9.9960938 3.0175781 C 9.9715794 3.0832252 9.9377822 3.1439149 9.9121094 3.2089844 L 9.4316406 3 L 6.5253906 3 z M 10.554688 4.7753906 L 14.947266 6.7089844 C 14.155489 8.3183457 13.119499 9.783968 11.892578 11.066406 L 8.5 7.6855469 C 9.3129558 6.8185093 10.007585 5.8427859 10.554688 4.7753906 z M 7.609375 8.5449219 L 11.007812 11.927734 C 9.7544801 13.065457 8.3384662 14.024464 6.7929688 14.761719 L 4.859375 10.394531 C 5.8591078 9.898314 6.7792215 9.2745429 7.609375 8.5449219 z "
     class="ColorScheme-Text"
     />
</svg>

<?xml version="1.0" encoding="UTF-8"?>
<svg viewBox="0 0 22 22" xmlns="http://www.w3.org/2000/svg">
 <defs id="defs3051">
  <style id="current-color-scheme" type="text/css">.ColorScheme-Text {
        color:#363636;
      }</style>
 </defs>
 <path class="ColorScheme-Text" d="m6.5254 3 2.9023 1.2793c-0.48215 0.92914-1.0939 1.7763-1.8008 2.5352l-3.8086-3.7949h-0.80664v0.94922l3.7227 3.7051c-0.72083 0.62387-1.5138 1.1628-2.375 1.5938l-0.79102-1.7852v-0.0039063l-0.53906-1.2559-0.013672 3.0234 0.22461 0.50586c-0.081462 0.030409-0.15791 0.071003-0.24023 0.099609v1.3086c0.25343-0.078839 0.49383-0.18532 0.74023-0.2793l1.9355 4.3652c-0.86159 0.339-1.7535 0.61875-2.6758 0.81836v1.2695c1.0992-0.2218 2.1576-0.55138 3.1777-0.95703l1.1348 2.5625h1.332l-1.3496-3.0469c1.6841-0.80126 3.2271-1.8474 4.5879-3.0918l3.4238 3.4082c-1.1183 1.041-2.332 1.9809-3.6367 2.791h2.2207c0.80623-0.59004 1.5648-1.2387 2.293-1.9199l1.8672 1.8594 0.88867 0.009766 0.005859-0.85547-1.8848-1.877c0.68574-0.70797 1.341-1.4456 1.9395-2.2305v-2.1484c-0.82306 1.2604-1.7697 2.4306-2.8125 3.5078l-3.4199-3.4082c1.333-1.3905 2.4536-2.9837 3.3086-4.7324l2.8594 1.2598 0.003906-1.3457-2.3672-1.0254c0.40526-0.98803 0.7385-2.0121 0.9707-3.0762h-1.2695c-0.20864 0.89161-0.49034 1.7529-0.83008 2.5859l-4.4043-1.9062c0.090744-0.22696 0.1956-0.44654 0.27344-0.67969h-1.3164c-0.024514 0.065647-0.058312 0.12634-0.083984 0.19141l-0.48047-0.20898h-2.9062zm4.0293 1.7754 4.3926 1.9336c-0.79178 1.6094-1.8278 3.075-3.0547 4.3574l-3.3926-3.3809c0.81296-0.86704 1.5076-1.8428 2.0547-2.9102zm-2.9453 3.7695 3.3984 3.3828c-1.2533 1.1377-2.6693 2.0967-4.2148 2.834l-1.9336-4.3672c0.99973-0.49622 1.9198-1.12 2.75-1.8496z" fill="currentColor"/>
</svg>
